X:163 
T:O'Callaghan's*  (reel) 
B:CRE3.088 (gan ainm)
F:file ID: cre.3/163ocall
R:reel
Q:180
M:C
L:1/8
K:G
G3A B2gB|BAGB AGED|GBAF GABd|egaf gedB|
"5"G3A B2gB|BAGB AGED|GBAF GABd|1 (3efg fa gedB:|\
[2 egfa gfed||
"9"g3a bgaf|gaba gfed|BcBA GABd|egfa gfed|
"13"g3a bgaf|gaba gfed|(3BcB BA GABd|egfa g3z|
"17"g3a bgaf|g2ba gfed|B2BA G2Bd|eff2 gfed|
"21"g3a bgaf|g2ba gfed|B2BA GABd|egfa gedB|G8||

%%%

